X:27
T:Bruiloftsdans
C:Traditioneel
O:Achtel (Vlaanderen)
B:"Achtel Zalig Oord", Vlaams Dansarchief
Z:Bert Van Vreckem <http://flanders.blackmill.net/music/>
M:2/4
L:1/8
K:C
G2|GF EF|G2 zG|GF EF|G2 z G| cc dd|ee cc|Bc dc|BA AG|G2 z2 |
|: G2 EG|c2 z2|d2 cd|E D|G2 EG|c2 z2|d2 cB|c2z2 :|
GG GG|AA G2|GG GG|AA G2|e2 c2|e2 c2|dd cB|c2 z2 |]

